resources/images/shelf.svg

<svg xmlns="http://www.w3.org/2000/svg" xmlns:xlink="http://www.w3.org/1999/xlink" preserveAspectRatio="none" width="285" height="427" viewBox="0 0 285 427"><defs><g id="a"><path fill="#D1A676" d="M23.65 348.75H225.8V94.95H23.65v253.8m193.05-193.6v19.1H33.35v-69.5H216.7v50.4M33.35 186.5H216.7v68.85H33.35V186.5m0 79.85H216.7v69H33.35v-69z"/><path fill="#956940" d="M74.05 266.35v41.55H216.7v-41.55H74.05M216.7 186.5H74.05v46.35H216.7V186.5m0-31.35v-50.4H74.05v50.4H216.7z"/><path fill="#CB9A62" d="M74.05 307.9l-40.7 27.45H216.7V307.9H74.05m0-75.05l-40.7 22.5H216.7v-22.5H74.05m142.65-58.6v-19.1H74.05l-40.7 19.1H216.7z"/><path fill="#A47142" d="M74.05 266.35h-40.7v69l40.7-27.45v-41.55m0-79.85h-40.7v68.85l40.7-22.5V186.5m-40.7-81.75v69.5l40.7-19.1v-50.4h-40.7z"/><path fill="#B8814E" d="M261.4 78.8l-35.6 16.15v253.8l35.6-37.5V78.8z"/><path fill="#CE9D6C" d="M225.8 94.95l35.6-16.15H74.05l-50.4 16.15H225.8z"/></g><path id="b" stroke="#362318" stroke-width="2" stroke-linejoin="round" stroke-linecap="round" fill="none" d="M216.7 155.15v19.1H33.35v-69.5H216.7v50.4H74.05l-40.7 19.1m192.45-79.3l35.6-16.15H74.05l-50.4 16.15H225.8v253.8l35.6-37.5V78.8M74.05 104.75v50.4m0 31.35h-40.7v68.85l40.7-22.5V186.5H216.7v68.85H33.35m0 80v-69H216.7v69H33.35l40.7-27.45v-41.55m151.75 82.4H23.65V94.95m193.05 137.9H74.05m0 75.05H216.7"/></defs><g><use xlink:href="#a"/><use xlink:href="#b"/></g></svg>

<svg xmlns="http://www.w3.org/2000/svg" version="1.1" xmlns:xlink="http://www.w3.org/1999/xlink" preserveAspectRatio="none" x="0px" y="0px" width="285px" height="427px" viewBox="0 0 285 427">
<defs>
<g id="Layer0_0_FILL">
<path fill="#D1A676" stroke="none" d="
M 23.65 348.75
L 225.8 348.75 225.8 94.95 23.65 94.95 23.65 348.75
M 216.7 155.15
L 216.7 174.25 33.35 174.25 33.35 104.75 74.05 104.75 216.7 104.75 216.7 155.15
M 33.35 186.5
L 74.05 186.5 216.7 186.5 216.7 232.85 216.7 255.35 33.35 255.35 33.35 186.5
M 33.35 266.35
L 74.05 266.35 216.7 266.35 216.7 307.9 216.7 335.35 33.35 335.35 33.35 266.35 Z"/>

<path fill="#956940" stroke="none" d="
M 74.05 266.35
L 74.05 307.9 216.7 307.9 216.7 266.35 74.05 266.35
M 216.7 186.5
L 74.05 186.5 74.05 232.85 216.7 232.85 216.7 186.5
M 216.7 155.15
L 216.7 104.75 74.05 104.75 74.05 155.15 216.7 155.15 Z"/>

<path fill="#CB9A62" stroke="none" d="
M 74.05 307.9
L 33.35 335.35 216.7 335.35 216.7 307.9 74.05 307.9
M 74.05 232.85
L 33.35 255.35 216.7 255.35 216.7 232.85 74.05 232.85
M 216.7 174.25
L 216.7 155.15 74.05 155.15 33.35 174.25 216.7 174.25 Z"/>

<path fill="#A47142" stroke="none" d="
M 74.05 266.35
L 33.35 266.35 33.35 335.35 74.05 307.9 74.05 266.35
M 74.05 186.5
L 33.35 186.5 33.35 255.35 74.05 232.85 74.05 186.5
M 33.35 104.75
L 33.35 174.25 74.05 155.15 74.05 104.75 33.35 104.75 Z"/>

<path fill="#B8814E" stroke="none" d="
M 261.4 78.8
L 225.8 94.95 225.8 348.75 261.4 311.25 261.4 78.8 Z"/>

<path fill="#CE9D6C" stroke="none" d="
M 225.8 94.95
L 261.4 78.8 74.05 78.8 23.65 94.95 225.8 94.95 Z"/>
</g>

<path id="Layer0_0_1_STROKES" stroke="#362318" stroke-width="2" stroke-linejoin="round" stroke-linecap="round" fill="none" d="
M 216.7 155.15
L 216.7 174.25 33.35 174.25 33.35 104.75 74.05 104.75 216.7 104.75 216.7 155.15 74.05 155.15 33.35 174.25
M 225.8 94.95
L 261.4 78.8 74.05 78.8 23.65 94.95 225.8 94.95 225.8 348.75 261.4 311.25 261.4 78.8
M 74.05 104.75
L 74.05 155.15
M 74.05 186.5
L 33.35 186.5 33.35 255.35 74.05 232.85 74.05 186.5 216.7 186.5 216.7 232.85 216.7 255.35 33.35 255.35
M 33.35 335.35
L 33.35 266.35 74.05 266.35 216.7 266.35 216.7 307.9 216.7 335.35 33.35 335.35 74.05 307.9 74.05 266.35
M 225.8 348.75
L 23.65 348.75 23.65 94.95
M 216.7 232.85
L 74.05 232.85
M 74.05 307.9
L 216.7 307.9"/>
</defs>

<g transform="matrix( 1, 0, 0, 1, 0,0) ">
<use xlink:href="#Layer0_0_FILL"/>

<use xlink:href="#Layer0_0_1_STROKES"/>
</g>
</svg>
